!!!Melodie: eigene
!!!Typ: Lied
**kern	**silbe	**silbe	**silbe	**silbe	**silbe	**silbe	**silbe	**silbe	**silbe	**silbe
*clefG2	*lang:DE	*lang:DE	*lang:DE	*lang:DE	*lang:DE	*lang:DE	*lang:DE	*lang:DE	*lang:DE	*lang:DE
*M4/4	*	*	*	*	*	*	*	*	*	*
*met(c)	*	*	*	*	*	*	*	*	*	*
2b	Aus	Dein’	Bei	Es	Da#	Auf	Und	Doch	Ob	Sein’
4e	tie#	gnä#	dir	ist	#rum	in	ob	soll	bei	Hand
4b	#fer	#dig'	gilt	doch	auf	mein	es	mein	uns	zu
=	=	=	=	=	=	=	=	=	=	=
4cc	Not	Oh#	nichts	un#	Gott	Herz	werd’	Herz	ist	hel#
4b	schrei’	#ren	denn	#ser	will	soll	bis	an	der	#fen
4g	ich	kehr'	Gnad'	Tun	hof#	las#	in	Got#	Sün#	hat
4a	zu	zu	und	um#	#fen	#sen	die	#tes	#den	kein
=	=	=	=	=	=	=	=	=	=	=
4b	dir,	mir	Gunst,	#sonst,	ich,	sich,	Nacht,	Macht,	viel,	Ziel,
8r	%	%	%	%	%	%	%	%	%	%
8b	Herr	und	die	auch	auf	und	und	ver#	bei	wie
4cc	Gott,	mei#	Sün#	in	mein	sei#	wi#	#zwei#	Gott	groß
4dd	er#	#ner	#de	dem	Ver#	#ner	#der	#feln	ist	auch
=	=	=	=	=	=	=	=	=	=	=
4cc	#hör'	Bitt'	zu	bes#	#dienst	Gü#	an	nicht	viel	sei
4a	mein	sie	er#	#ten	nicht	#te	den	aus	mehr	der
(4g	Ru#	öf#	#ge#	Le#	bau#	trau#	Mor#	Sor#	Gna#	Scha#
4f)	|	|	|	|	|	|	|	|	|	|
=	=	=	=	=	=	=	=	=	=	=
4e	#fen,	#fen,	#ben,	#ben,	#en,	#en,	#gen,	#gen,	#den,	#den,
=:|	=	=	=	=	=	=	=	=	=	=
8r	.	%	.	%	.	%	.	%	.	%
8a	.	denn	.	für	.	die	.	so	.	er
4g	.	so	.	dir	.	mir	.	tu'	.	ist
4cc	.	du	.	nie#	.	zu#	.	Is#	.	al#
4b	.	willst	.	#mand	.	#sagt	.	#ra#	.	#lein
=	=	=	=	=	=	=	=	=	=	=
8a	.	das	.	sich	.	sein	.	#el	.	der
(4dd	.	se#	.	rüh#	.	wer#	.	rech#	.	gu#
8cc)	.	|	.	|	.	|	.	|	.	|
4b	.	#hen	.	#men	.	#tes	.	#ter	.	#te
4a	.	an,	.	kann,	.	Wort,	.	Art,	.	Hirt,
=	=	=	=	=	=	=	=	=	=	=
8r	.	%	.	%	.	%	.	%	.	%
8cc	.	was	.	des	.	das	.	der	.	der
4b	.	Sünd’	.	muss	.	ist	.	aus	.	Is#
4cc	.	und	.	dich	.	mein	.	dem	.	#ra#
4dd	.	Un#	.	fürch#	.	Trost	.	Geist	.	#el
=	=	=	=	=	=	=	=	=	=	=
4g	.	#recht	.	#ten	.	und	.	er#	.	er#
8Lb	.	ist	.	je#	.	treu#	.	#zeu#	.	#lö#
8Jcc	.	|	.	|	.	|	.	|	.	|
4a	.	ge#	.	#der#	.	#er	.	#get	.	#sen
4g	.	#tan,	.	#mann,	.	Hort,	.	ward,	.	wird,
=	=	=	=	=	=	=	=	=	=	=
8r	.	%	.	%	.	%	.	%	.	%
8g	.	wer	.	und	.	des	.	und	.	aus
4cc	.	kann,	.	dei#	.	will	.	sei#	.	sei#
4b	.	Herr,	.	#ner	.	ich	.	#nes	.	#nen
4a	.	für	.	Gna#	.	all#	.	Gotts	.	Sün#
=	=	=	=	=	=	=	=	=	=	=
4e	.	dir	.	#den	.	#zeit	.	er#	.	#den
(4g	.	blei#	.	le#	.	har#	.	#har#	.	al#
4f)	.	|	.	|	.	|	.	|	.	|
1e	.	#ben?	.	#ben.	.	#ren.	.	#re.	.	#len.
==	==	==	==	==	==	==	==	==	==	==
*-	*-	*-	*-	*-	*-	*-	*-	*-	*-	*-
